X:171
T: SAECKE FLICKEN
N: K2336
O: Europa, Mitteleuropa, Deutschland, Kassel
R: Kinder - Lied, Reigen, Tanz - Spiel
M: 2/4
L: 1/8
K: C
 | GFEB, | GFEB, |
GGAA | G2E2 |
GFEB, | GFEB, |
GGAA | G2E2 |
GGAA | GFEz |
GGAA | GFEz

@@@ Tune index: 7508
